X:1
T:Title
%%score { ( 1 3 ) | ( 2 4 ) }
L:1/8
M:4/4
K:D
V:1 treble nm="Grand Piano"
V:3 treble 
V:2 bass 
V:4 bass 
V:1
 z4 z2[Q:1/4=92] [DF][EG] | [FA]<[FA] [GB]>[GB] [FA]2 (3FFG | A6 z2 | %3
 [FA]>[FA] [GB]>[GB] [FA]2 (3FF[EG] | [FA]6 [FA][FA] | %5
 [DGB]>[DGB] [B,Gd]>[DGd] [DFA]2 [A,DF]>[A,DF] | [EG]>[DF] [EG]>[FA] F2 F>F | E<E A>B c2 (3BBB | %8
[M:3/4] [CA]6 |[M:1/4] [FA]>[FA] |[M:4/4] [Fd]<[Fd] [FA]>[DF] [FA]2 (3GGG | %11
[M:7/8] [Ec]/[Ec][Ec]<[FB][DF]/ [FA]3 |[M:1/4] [FA][FA] | %13
[M:4/4] B<B d>B [DFA]2 (3[B,DG][B,DG][B,DG] |[M:7/8] [A,DF]2[K:bass] [G,CE]2 [F,D]3 |] %15
V:2
 z4 z2 [D,A,]2 | [D,D]<[D,D] [D,D]>[D,D] [D,D]2[K:treble] (3DDE | F6[K:bass] z2 | %3
 [D,D]>[D,D] [D,D]>[D,D] [D,D]2 (3[D,D][D,A,D][D,A,] | [D,D]6 [D,D][D,D] | %5
 G,>G, G,,>B,, D,2 D,>D, | [A,,A,]>[A,,A,] [A,,A,]>[A,,A,] [D,A,D]2 [D,A,D]>[D,A,D] | %7
 [E,A,C]<[E,A,C] [E,A,C]>[E,^G,D] [E,A,E]2 (3[E,G,D][E,G,D][E,G,D] |[M:3/4] [A,,A,]6 | %9
[M:1/4] [D,D]>[D,D] |[M:4/4] [D,A,]<[D,A,] [D,D]>[D,A,] [D,D]2 (3[E,A,C][E,A,C][E,A,C] | %11
[M:7/8] [A,,A,]/[A,,A,][A,,A,]<[D,A,][D,A,]/ [D,D]3 |[M:1/4] [D,D][D,D] | %13
[M:4/4][K:treble] [G,DG]<[G,DG] [G,B,G]>[G,DG][K:bass] D,2 (3G,,G,,G,, |[M:7/8] A,,2 A,,2 D,3 |] %15
V:3
 x8 | x8 | z2 (3DDD D2 F[EG] | x8 | x8 | x8 | x8 | x8 |[M:3/4] x6 |[M:1/4] x2 |[M:4/4] x8 | %11
[M:7/8] x7 |[M:1/4] x2 |[M:4/4] x8 |[M:7/8] x2[K:bass] x5 |] %15
V:4
 x8 | x6[K:treble] x2 | z2[K:bass] (3D,F,A, D,2 [D,A,D][D,A,] | x8 | x8 | x8 | x8 | x8 | %8
[M:3/4] x6 |[M:1/4] x2 |[M:4/4] x8 |[M:7/8] x7 |[M:1/4] x2 |[M:4/4][K:treble] x4[K:bass] x4 | %14
[M:7/8] x7 |] %15

